static/img/kroki/a43ba24246f11bfcd4f23da382443ef8.svg

<?xml version="1.0" encoding="us-ascii" standalone="no"?><svg xmlns="http://www.w3.org/2000/svg" xmlns:xlink="http://www.w3.org/1999/xlink" contentStyleType="text/css" height="374px" preserveAspectRatio="none" style="width:321px;height:374px;" version="1.1" viewBox="0 0 321 374" width="321px" zoomAndPan="magnify"><defs/><g><!--class gcp_resource--><g id="elem_gcp_resource"><rect codeLine="23" fill="#3D176E" height="39.7891" id="gcp_resource" rx="2.5" ry="2.5" style="stroke:#000D19;stroke-width:0.5;" width="150" x="85.5" y="167.79"/><ellipse cx="100.5" cy="187.6845" fill="#ADD1B2" rx="11" ry="11" style="stroke:#181818;stroke-width:1.0;"/><path d="M103.4688,193.3252 Q102.8906,193.622 102.25,193.7627 Q101.6094,193.9189 100.9063,193.9189 Q98.4063,193.9189 97.0781,192.2783 Q95.7656,190.622 95.7656,187.497 Q95.7656,184.372 97.0781,182.7158 Q98.4063,181.0595 100.9063,181.0595 Q101.6094,181.0595 102.25,181.2158 Q102.9063,181.372 103.4688,181.6689 L103.4688,184.3877 Q102.8438,183.8095 102.25,183.5439 Q101.6563,183.2627 101.0313,183.2627 Q99.6875,183.2627 99,184.3408 Q98.3125,185.4033 98.3125,187.497 Q98.3125,189.5908 99,190.6689 Q99.6875,191.7314 101.0313,191.7314 Q101.6563,191.7314 102.25,191.4658 Q102.8438,191.1845 103.4688,190.6064 L103.4688,193.3252 Z " fill="#000000"/><text fill="#D9B8FF" font-family="Helvetica" font-size="17" lengthAdjust="spacing" textLength="108" x="119.5" y="193.5698">gcp_resource</text></g><!--class gcp_vertex_ai_training_pipeline--><g id="elem_gcp_vertex_ai_training_pipeline"><rect codeLine="26" fill="#3D176E" height="39.7891" id="gcp_vertex_ai_training_pipeline" rx="2.5" ry="2.5" style="stroke:#000D19;stroke-width:0.5;" width="307" x="7" y="328.58"/><ellipse cx="22" cy="348.4745" fill="#ADD1B2" rx="11" ry="11" style="stroke:#181818;stroke-width:1.0;"/><path d="M24.9688,354.1152 Q24.3906,354.412 23.75,354.5527 Q23.1094,354.7089 22.4063,354.7089 Q19.9063,354.7089 18.5781,353.0683 Q17.2656,351.412 17.2656,348.287 Q17.2656,345.162 18.5781,343.5058 Q19.9063,341.8495 22.4063,341.8495 Q23.1094,341.8495 23.75,342.0058 Q24.4063,342.162 24.9688,342.4589 L24.9688,345.1777 Q24.3438,344.5995 23.75,344.3339 Q23.1563,344.0527 22.5313,344.0527 Q21.1875,344.0527 20.5,345.1308 Q19.8125,346.1933 19.8125,348.287 Q19.8125,350.3808 20.5,351.4589 Q21.1875,352.5214 22.5313,352.5214 Q23.1563,352.5214 23.75,352.2558 Q24.3438,351.9745 24.9688,351.3964 L24.9688,354.1152 Z " fill="#000000"/><text fill="#D9B8FF" font-family="Helvetica" font-size="17" lengthAdjust="spacing" textLength="265" x="41" y="354.3598">gcp_vertex_ai_training_pipeline</text></g><!--class resource--><g id="elem_resource"><rect codeLine="29" fill="#3D176E" height="39.7891" id="resource" rx="2.5" ry="2.5" style="stroke:#000D19;stroke-width:0.5;" width="113" x="104" y="7"/><ellipse cx="119" cy="26.8945" fill="#ADD1B2" rx="11" ry="11" style="stroke:#181818;stroke-width:1.0;"/><path d="M121.9688,32.5352 Q121.3906,32.832 120.75,32.9727 Q120.1094,33.1289 119.4063,33.1289 Q116.9063,33.1289 115.5781,31.4883 Q114.2656,29.832 114.2656,26.707 Q114.2656,23.582 115.5781,21.9258 Q116.9063,20.2695 119.4063,20.2695 Q120.1094,20.2695 120.75,20.4258 Q121.4063,20.582 121.9688,20.8789 L121.9688,23.5977 Q121.3438,23.0195 120.75,22.7539 Q120.1563,22.4727 119.5313,22.4727 Q118.1875,22.4727 117.5,23.5508 Q116.8125,24.6133 116.8125,26.707 Q116.8125,28.8008 117.5,29.8789 Q118.1875,30.9414 119.5313,30.9414 Q120.1563,30.9414 120.75,30.6758 Q121.3438,30.3945 121.9688,29.8164 L121.9688,32.5352 Z " fill="#000000"/><text fill="#D9B8FF" font-family="Helvetica" font-size="17" lengthAdjust="spacing" textLength="71" x="138" y="32.7798">resource</text></g><!--reverse link resource to gcp_resource--><g id="link_resource_gcp_resource"><path codeLine="32" d="M160.5,65.05 C160.5,95.57 160.5,136.9 160.5,167.46 " fill="none" id="resource-backto-gcp_resource" style="stroke:#FFAF37;stroke-width:2.0;"/><polygon fill="none" points="160.5,47.05,154.5,65.05,166.5,65.05,160.5,47.05" style="stroke:#FFAF37;stroke-width:2.0;"/></g><!--reverse link gcp_resource to gcp_vertex_ai_training_pipeline--><g id="link_gcp_resource_gcp_vertex_ai_training_pipeline"><path codeLine="33" d="M160.5,225.84 C160.5,256.36 160.5,297.69 160.5,328.25 " fill="none" id="gcp_resource-backto-gcp_vertex_ai_training_pipeline" style="stroke:#FFAF37;stroke-width:2.0;"/><polygon fill="none" points="160.5,207.84,154.5,225.84,166.5,225.84,160.5,207.84" style="stroke:#FFAF37;stroke-width:2.0;"/></g><!--SRC=[XPBDReCm48JlF8Mbd96WKKkGUacHglOILKtloDXhi00RhKtIzEVT2qsR6cZ8qJkVTsPNMqWE1Eh67aWDTGPeF5DArL2aDLaZwdsYAura8GGLosWitcjbBm8RMWDvW6e7LZ8w9buAoKe5nf0hHxgZhCnHjueVsrkaodGIAEjGIKMDMLkBCcijE65udAs469FZfeib3wCRc60QEU0F4WG13-CnSj5gTkuJiPLlG49tQHjjOH9pOl5DpQRi2IVaPD1V_Mp69ygvL3cvTchFnqoe00VrRK6vtlUqe9LnROm516qF3IIJgI1USH7z2p-UWptMhuxah4aHZ6wH0Ndtl4-dlWEqy9fIcNOt8rMNAcra0vLK0tJu_VIw_V1zVz3V6vZzwJC-tXS0]--></g></svg>

<svg xmlns="http://www.w3.org/2000/svg" width="321" height="374" viewBox="0 0 321 374"><rect width="150" height="39.789" x="85.5" y="167.79" fill="#3D176E" rx="2.5" ry="2.5" style="stroke:#000d19;stroke-width:.5"/><circle cx="100.5" cy="187.685" r="11" fill="#ADD1B2" style="stroke:#181818;stroke-width:1"/><path d="M103.469 193.325q-.578.297-1.219.438-.64.156-1.344.156-2.5 0-3.828-1.64-1.312-1.657-1.312-4.782t1.312-4.781q1.328-1.656 3.828-1.656.703 0 1.344.156.656.156 1.219.453v2.719q-.625-.578-1.219-.844-.594-.281-1.219-.281-1.344 0-2.031 1.078-.687 1.062-.687 3.156t.687 3.172q.688 1.062 2.031 1.062.625 0 1.219-.265.594-.281 1.219-.86z"/><text x="119.5" y="193.57" fill="#D9B8FF" font-family="Helvetica" font-size="17" textLength="108">gcp_resource</text><rect width="307" height="39.789" x="7" y="328.58" fill="#3D176E" rx="2.5" ry="2.5" style="stroke:#000d19;stroke-width:.5"/><circle cx="22" cy="348.474" r="11" fill="#ADD1B2" style="stroke:#181818;stroke-width:1"/><path d="M24.969 354.115q-.578.297-1.219.438-.64.156-1.344.156-2.5 0-3.828-1.64-1.312-1.657-1.312-4.782t1.312-4.781q1.328-1.656 3.828-1.656.703 0 1.344.156.656.156 1.219.453v2.719q-.625-.579-1.219-.844-.594-.281-1.219-.281-1.343 0-2.031 1.078-.687 1.062-.687 3.156t.687 3.172q.688 1.062 2.031 1.062.625 0 1.219-.265.594-.281 1.219-.86z"/><text x="41" y="354.36" fill="#D9B8FF" font-family="Helvetica" font-size="17" textLength="265">gcp_vertex_ai_training_pipeline</text><rect width="113" height="39.789" x="104" y="7" fill="#3D176E" rx="2.5" ry="2.5" style="stroke:#000d19;stroke-width:.5"/><circle cx="119" cy="26.895" r="11" fill="#ADD1B2" style="stroke:#181818;stroke-width:1"/><path d="M121.969 32.535q-.578.297-1.219.438-.64.156-1.344.156-2.5 0-3.828-1.64-1.312-1.657-1.312-4.782t1.312-4.781q1.328-1.656 3.828-1.656.703 0 1.344.156.656.156 1.219.453v2.719q-.625-.578-1.219-.844-.594-.281-1.219-.281-1.344 0-2.031 1.078-.687 1.062-.687 3.156t.687 3.172q.688 1.062 2.031 1.062.625 0 1.219-.265.594-.281 1.219-.86z"/><text x="138" y="32.78" fill="#D9B8FF" font-family="Helvetica" font-size="17" textLength="71">resource</text><path fill="none" d="M160.5 65.05v102.41m0-120.41-6 18h12zm0 178.79v102.41m0-120.41-6 18h12z" style="stroke:#ffaf37;stroke-width:2"/></svg>
